common/svg/privacy-icon.svg

<svg fill="none" height="20" viewBox="0 0 20 20" width="20" xmlns="http://www.w3.org/2000/svg"><path d="m16.9528 13.9226c-.1657.1383-.4133.1295-.568-.0202l-1.9921-1.932c-.1153-.112-.1523-.279-.0947-.4271.6276-1.62832.2169-3.46199-1.0507-4.6914-1.2677-1.2294-3.159-1.62821-4.83882-1.02035-.15268.05581-.32493.01989-.44044-.09185l-1.33098-1.29092c-.06402-.06185-.09039-.15148-.06965-.23677.02074-.0853.08561-.15407.1714-.18169 1.05292-.3328 2.1538-.50088 3.26129-.49793 6.1122 0 9.1478 4.71332 9.9037 6.08841.1283.2327.1283.5121 0 .7448-.7566 1.3471-1.756 2.5518-2.951 3.557zm-14.69037-12.57506 16.66277 16.16206c.3255.3154.3256.8269.0003 1.1425s-.853.3157-1.1785.0003l-16.66272-16.16202c-.325527-.31541-.325676-.82693-.00034-1.14251.32534-.31559.85297-.31573 1.17849-.00033zm1.35165 4.73732 2.00153 1.94128c.11493.11176.15205.27825.095.42606-.62226 1.6264-.21032 3.4552 1.05463 4.6821 1.26496 1.2268 3.15116 1.627 4.82906 1.0244.1525-.0553.3242-.0192.4394.0923l1.3272 1.2872c.064.0619.0904.1515.0696.2368-.0207.0853-.0856.1541-.1714.1817-1.0523.3324-2.1524.5002-3.25911.4973-6.11222 0-9.14787-4.7133-9.9037104-6.0884-.1283728-.2327-.1283728-.51212 0-.7448.7561234-1.34661 1.7550604-2.55095 2.9494504-3.5559.16566-.13852.41346-.12982.56835.01996z" fill="#000"/></svg>

<svg width="20" height="20" viewBox="0 0 20 20" fill="none" xmlns="http://www.w3.org/2000/svg">
<path d="M16.9528 13.9226C16.7871 14.0609 16.5395 14.0521 16.3848 13.9024L14.3927 11.9704C14.2774 11.8584 14.2404 11.6914 14.298 11.5433C14.9256 9.91498 14.5149 8.08131 13.2473 6.8519C11.9796 5.6225 10.0883 5.22369 8.40848 5.83155C8.2558 5.88736 8.08355 5.85144 7.96804 5.7397L6.63706 4.44878C6.57304 4.38693 6.54667 4.2973 6.56741 4.21201C6.58815 4.12671 6.65302 4.05794 6.73881 4.03032C7.79173 3.69752 8.89261 3.52944 10.0001 3.53239C16.1123 3.53239 19.1479 8.24571 19.9038 9.6208C20.0321 9.8535 20.0321 10.1329 19.9038 10.3656C19.1472 11.7127 18.1478 12.9174 16.9528 13.9226ZM2.26243 1.34754L18.9252 17.5096C19.2507 17.825 19.2508 18.3365 18.9255 18.6521C18.6002 18.9677 18.0725 18.9678 17.747 18.6524L1.08428 2.49038C0.758753 2.17497 0.758604 1.66345 1.08394 1.34787C1.40928 1.03228 1.93691 1.03214 2.26243 1.34754ZM3.61408 6.08486L5.61561 8.02614C5.73054 8.1379 5.76766 8.30439 5.71061 8.4522C5.08835 10.0786 5.50029 11.9074 6.76524 13.1343C8.0302 14.3611 9.9164 14.7613 11.5943 14.1587C11.7468 14.1034 11.9185 14.1395 12.0337 14.251L13.3609 15.5382C13.4249 15.6001 13.4513 15.6897 13.4305 15.775C13.4098 15.8603 13.3449 15.9291 13.2591 15.9567C12.2068 16.2891 11.1067 16.4569 9.99999 16.454C3.88777 16.454 0.85212 11.7407 0.0962796 10.3656C-0.0320932 10.1329 -0.0320932 9.85348 0.0962796 9.6208C0.852403 8.27419 1.85134 7.06985 3.04573 6.0649C3.21139 5.92638 3.45919 5.93508 3.61408 6.08486Z" fill="black"/>
</svg>
